X:79
T:B079-  Come, shepherds, deck your heads
S:(1st/3)
Q:1/4=120
L:1/4
M:6/4
K:F
A/2B/2|c3/2B/2Ad3/2c/2B|A2zzzG|B2dcA2|G3z3|\
Gc2BG_e|d2zzzG|=B3/2c/2d_edd|c2zzzB|\
A2dfe2|d2zzzB|c2_edc2|B2zzzB|\
G2B2AA|G3z3|c2BFGG|(F3.F2)|]
